X:3340
L:1/8
Q:1/8=180
M:4/4
K:G
 G2 GF GBdB | cBcd g2 dc | BG G2 AFGE | DEGB AGEF | G2 GF GBdB | cBcd g2 dc | B2 GB AGEG | 
 DEGB A2 G2 :| gfge d2 Bc | dgbg agef | gfge d2 Bc | dgbg agef | gfge d2 Bc | dgbg agef | 
 g2 gf efge | d2 dc BcdB :|

